X: 30875
T: Out On The Ocean
R: jig
M: 6/8
K: Gmajor
|:D2B BAG|BdB A2B|GED G2A|B3 AGE|
D2B BAG|BdB A2B|GED G2A|1 BGF G2E:|2 BGF GBd||
|:e3 edB|e3 edB|d3 dBd|gfe dBA|
G2A B2d|e3 dBA|GED G2A|1 BGF GBd:|2 BGF G2E||

